X:24
T:The Continuous Sound
C:François Champs
Z:Gwen, 2019-04-13
R:Reel
M:2/2
K:C
|: FAAd d^f^f2 | ecc/c/c ABcA | GEFA d^fed | ^cAAG ^FDDE |
   FAAd d^f^f2 | ecc/c/c ABcA | d^cdA AB=cA |1 Ad^ce d2DE :|2 Ad^ce d/d/dd2
|: fBB/B/B A^FA2 | D^FAD ^FAcB | Bd^ce fgfe | ded^c AB=cA |
   fBB/B/B A^FA2 | D^FAD ^FAcB | ded^c AB=cA | Ad^ce d2d2 :|

